**kern	**kern	**dynam
*part1	*part1	*part1
*staff2	*staff1	*
*I"Piano	*	*
*clefF4	*clefG2	*
*k[f#c#g#d#]	*k[f#c#g#d#]	*
=1	=1	=1
*^	*	*
8.BBL	2BBB	(2A^ 2B 2d# 2f#	.
16BBK	.	.	.
8BB	.	.	.
8BBJ	.	.	.
=	=	=	=
8.BBL	2BBB	8G#) 8B 8e 8g#	.
.	.	8r	.
16BBK	.	.	.
8BB	.	4r	.
8BBJ	.	.	.
=	=	=	=
!	!	!	!LO:DY:a
8.BBL	2BBB	[2F#: [2B: [2d#: [2a:	p <
16BBK	.	.	.
8BB	.	.	.
8BBJ	.	.	.
=	=	=	=
!	!	!	!LO:DY:a
8.BBL	2BBB	2F#] 2B] 2d#] 2a]	[ >
16BBK	.	.	.
8BB	.	.	.
8BBJ	.	.	.
=	=	=	=
8.BBL	[2EE	4G# 4B 4e 4g#	]
16BBK	.	.	.
8BB	.	4r	.
8BBJ	.	.	.
=	=	=	=
8.BBL	2EE]	2r	.
16BBK	.	.	.
8BB	.	.	.
8BBJ	.	.	.
=	=	=	=
8.BBL	2EE	4G# 4B 4e 4g#	ppp
16BBK	.	.	.
8BB	.	4r	.
8BBJ	.	.	.
=	=	=	=
8.BBL	2EE	4G# 4B 4e 4g#	.
16BBK	.	.	.
8BB	.	4r	.
8BBJ	.	.	.
*v	*v	*	*
=	=	=
8EE 8BB	8G# 8B 8e 8g#	ppp
8r	8r	.
4r;	4r;	.
=:|!	=:|!	=:|!
*-	*-	*-
!!!system-decoration: {(s1,s2)}
